Catalina-dark/actions/22/view-media-playlist.svg

<?xml version="1.0" encoding="UTF-8" standalone="no"?>
<svg
   xmlns:dc="http://purl.org/dc/elements/1.1/"
   xmlns:cc="http://creativecommons.org/ns#"
   xmlns:rdf="http://www.w3.org/1999/02/22-rdf-syntax-ns#"
   xmlns:svg="http://www.w3.org/2000/svg"
   xmlns="http://www.w3.org/2000/svg"
   xmlns:sodipodi="http://sodipodi.sourceforge.net/DTD/sodipodi-0.dtd"
   xmlns:inkscape="http://www.inkscape.org/namespaces/inkscape"
   viewBox="0 0 22 22"
   id="svg2"
   version="1.1"
   inkscape:version="0.91 r13725"
   sodipodi:docname="view-list.svg">
  <metadata
     id="metadata10">
    <rdf:RDF>
      <cc:Work
         rdf:about="">
        <dc:format>image/svg+xml</dc:format>
        <dc:type
           rdf:resource="http://purl.org/dc/dcmitype/StillImage" />
      </cc:Work>
    </rdf:RDF>
  </metadata>
  <sodipodi:namedview
     pagecolor="#ffffff"
     bordercolor="#666666"
     borderopacity="1"
     objecttolerance="10"
     gridtolerance="10"
     guidetolerance="10"
     inkscape:pageopacity="0"
     inkscape:pageshadow="2"
     inkscape:window-width="640"
     inkscape:window-height="480"
     id="namedview8"
     showgrid="false"
     inkscape:zoom="28.954545"
     inkscape:cx="9.7807154"
     inkscape:cy="11"
     inkscape:current-layer="svg2" />
  <defs
     id="defs3051">
    <style
       type="text/css"
       id="current-color-scheme">
      .ColorScheme-Text {
        color:#f2f2f2
      }
      </style>
  </defs>
  <g
     id="g3209"
     transform="translate(0,0.5)">
    <path
       inkscape:connector-curvature="0"
       id="path3207"
       d="M 4.5996094,3.8007812 C 3.7159594,3.8007812 3.00001,4.5167306 3,5.4003906 3.00001,6.2840506 3.7159594,7 4.5996094,7 5.4832594,7 6.1992087,6.2840506 6.1992188,5.4003906 6.1992088,4.5167306 5.4832594,3.8007812 4.5996094,3.8007812 Z"
       style="fill:#f2f2f2;fill-opacity:1;stroke:none" />
    <path
       inkscape:connector-curvature="0"
       id="path3205"
       d="m 8,4.4003906 c -0.54535,0 -1,0.45465 -1,1 0,0.54536 0.45465,1 1,1 l 10,0 c 0.54536,0 1,-0.45464 1,-1 0,-0.54535 -0.45464,-0.99999 -1,-1 l -10,0 z"
       style="fill:#f2f2f2;fill-opacity:1;stroke:none" />
    <path
       inkscape:connector-curvature="0"
       id="path3203"
       d="M 4.5996094,8.8007816 C 3.7159494,8.8007816 3,9.516731 3,10.400391 3,11.284051 3.7159494,12 4.5996094,12 c 0.88366,0 1.5996094,-0.715949 1.5996094,-1.599609 0,-0.88366 -0.7159494,-1.5996094 -1.5996094,-1.5996094 z"
       style="fill:#f2f2f2;fill-opacity:1;stroke:none" />
    <path
       inkscape:connector-curvature="0"
       id="path3201"
       d="m 8,9.400391 c -0.54535,0 -1,0.45464 -1,1 0,0.54535 0.45465,1 1,1 l 10,0 c 0.54536,0 1,-0.45465 1,-1 0,-0.54536 -0.45464,-1 -1,-1 l -10,0 z"
       style="fill:#f2f2f2;fill-opacity:1;stroke:none" />
    <path
       inkscape:connector-curvature="0"
       id="path3199"
       d="M 4.5996094,13.800781 C 3.7159494,13.800781 3,14.516731 3,15.400391 3,16.284051 3.7159494,17 4.5996094,17 c 0.88366,0 1.5996094,-0.715949 1.5996094,-1.599609 0,-0.88366 -0.7159494,-1.59961 -1.5996094,-1.59961 z"
       style="fill:#f2f2f2;fill-opacity:1;stroke:none" />
    <path
       inkscape:connector-curvature="0"
       id="path6"
       d="m 8,14.400391 c -0.54535,0 -1,0.45464 -1,1 0,0.54535 0.45465,1 1,1 l 10,0 c 0.54536,0 1,-0.45465 1,-1 0,-0.54536 -0.45464,-1 -1,-1 l -10,0 z"
       style="fill:#f2f2f2;fill-opacity:1;stroke:none" />
  </g>
</svg>

<svg width="22" height="22" version="1.1" viewBox="3 4.301 16 13.2" xmlns="http://www.w3.org/2000/svg">
<defs>
<style id="current-color-scheme" type="text/css">.ColorScheme-Text {
        color:#f2f2f2
      }</style>
</defs>
<g transform="translate(0 .5)" fill="#f2f2f2">
<path d="m4.5996 3.8008c-0.88365 0-1.5996 0.71595-1.5996 1.5996 1e-5 0.88366 0.71596 1.5996 1.5996 1.5996s1.5996-0.71595 1.5996-1.5996c-1e-5 -0.88366-0.71596-1.5996-1.5996-1.5996z"/>
<path d="m8 4.4004c-0.54535 0-1 0.45465-1 1 0 0.54536 0.45465 1 1 1h10c0.54536 0 1-0.45464 1-1 0-0.54535-0.45464-0.99999-1-1h-10z"/>
<path d="m4.5996 8.8008c-0.88366 0-1.5996 0.71595-1.5996 1.5996s0.71595 1.5996 1.5996 1.5996 1.5996-0.71595 1.5996-1.5996-0.71595-1.5996-1.5996-1.5996z"/>
<path d="m8 9.4004c-0.54535 0-1 0.45464-1 1 0 0.54535 0.45465 1 1 1h10c0.54536 0 1-0.45465 1-1 0-0.54536-0.45464-1-1-1h-10z"/>
<path d="m4.5996 13.801c-0.88366 0-1.5996 0.71595-1.5996 1.5996s0.71595 1.5996 1.5996 1.5996 1.5996-0.71595 1.5996-1.5996-0.71595-1.5996-1.5996-1.5996z"/>
<path d="m8 14.4c-0.54535 0-1 0.45464-1 1 0 0.54535 0.45465 1 1 1h10c0.54536 0 1-0.45465 1-1 0-0.54536-0.45464-1-1-1h-10z"/>
</g>
</svg>
